X: 22
T:Stage Hornpipe (#327), A
M:2/4
L:1/16
S:Rice-Walsh manuscript
R:Hornpipe
K:A
E2|A2A2 AcBd|c2c2 cedf|eagf edcA|Ace^d fedB|
A2A2 AcBd c2c2 cedf|eagf (3efe (3dcB|c2A2 A2:|
|:A2 ceAe ceAe|dfBf dfBf|ceAe ceAe|BAGF Aced|
ceAe ceAe|dfBf dfBf|eagf (3efe (3dcB|c2A2 A2:||

